X: 35629
T: Saileog Annie
R: reel
M: 4/4
K: Fmajor
Fccd cFAG|FGGF AGFE|D2EF C2EF|ABGF EFGE|
Fccd cFAG|FGGF AGFE|D2EF C2EF|ABGE F3F:|
B2GF EFGE|FAcd cAFE|D2EF C2EF|ABGF EFGA|
B2GF ECGE|FAcd cGFE|D2EF C2EF|ABGE F3F:|

